X:798
T:Shepherd's Wife
D:The Clutha
Z:Nigel Gatherer
M:6/8
L:1/8
K:D
A, | D2D F2A | d2c B2A | BdB AFD | EFE E2
A, | D2D F2A | d2c B2A | BdB cec | d3  d2 :|
A  | d2e f2d | efd cBA | BdB AFD | EFE E2
A  | d2e f2d | efd cBA | BdB cec | d3  d2 :|]
